rusokon/images/icon-beauty-1.svg

<svg xmlns="http://www.w3.org/2000/svg" width="52" height="52" viewBox="0 0 52 52"><defs><style>.cls-1{fill:#a2a2a2;}.cls-2{fill:#ff1a46;}</style></defs><title>icon-beauty-1</title><path class="cls-1" d="M51 51h-51v-51h51zm-50-1h49v-49h-49z"/><path class="cls-2" d="M10.7 32.1a.76.76 0 0 1-.2.4 3.57 3.57 0 0 0-1.2 2.7v2.8a3.69 3.69 0 0 0 3.7 3.7h25a3.69 3.69 0 0 0 3.7-3.7v-2.8a3.69 3.69 0 0 0-3.7-3.7h-2.5a.66.66 0 0 1-.5-.4.48.48 0 0 1 .2-.6l3.6-2.1a2.59 2.59 0 0 0 1.1-1.4 2.29 2.29 0 0 0-.2-1.8l-2.7-4.7a2.76 2.76 0 0 0-1.3-1.1 2 2 0 0 0-1.7.2l-2.5 1.5c-.2.1-.5.1-.6-.1a.47.47 0 0 1-.1-.6l1.5-2.4a2.4 2.4 0 0 0-.7-3.3l-4.4-2.8a2.14 2.14 0 0 0-1.9-.3 2.27 2.27 0 0 0-1.6 1.1l-2 2.9a.45.45 0 0 1-.6.2.66.66 0 0 1-.4-.5v-4a1.9 1.9 0 0 0-1.9-1.9h-6.2a1.9 1.9 0 0 0-1.9 1.9zm24.2-10.9a.53.53 0 0 1 .7.2v.1c.1.3 1.7 3 2.7 4.8a.6.6 0 0 1 .1.4.32.32 0 0 1-.3.3l-8 4.5a.35.35 0 0 0-.2.1h-11.4a.66.66 0 0 1-.5-.4.48.48 0 0 1 .2-.6zm-14.2-.6a.37.37 0 0 0 .1-.3c0-.1 0-.1.1-.2l4.3-6.5a.55.55 0 0 1 .5-.3.75.75 0 0 1 .5.1l4.4 2.8a1.38 1.38 0 0 1 .3.4.9.9 0 0 1-.1.5l-4.3 6.7c0 .1-.1.1-.2.2l-10.9 6.1a.35.35 0 0 0-.2.1.76.76 0 0 1-.4-.2.37.37 0 0 1 0-.6zm-8.2-9a.47.47 0 0 1 .5-.5h5.6a.47.47 0 0 1 .5.5v7.9a.37.37 0 0 1-.1.3l-5.6 8.4a.76.76 0 0 1-.4.2h-.1a.66.66 0 0 1-.4-.5zm-1.4 23.6a1.9 1.9 0 0 1 1.9-1.9h25a1.9 1.9 0 0 1 1.9 1.9v2.8a1.9 1.9 0 0 1-1.9 1.9h-25a1.9 1.9 0 0 1-1.9-1.9zM24.8 35.2h-1.4a.68.68 0 0 0-.7.7v1.4a.68.68 0 0 0 .7.7h1.4a.68.68 0 0 0 .7-.7v-1.4a.68.68 0 0 0-.7-.7zM30.4 35.2h-1.4a.68.68 0 0 0-.7.7v1.4a.68.68 0 0 0 .7.7h1.4a.68.68 0 0 0 .7-.7v-1.4a.75.75 0 0 0-.7-.7zM35.9 35.2h-1.4a.68.68 0 0 0-.7.7v1.4a.68.68 0 0 0 .7.7h1.4a.68.68 0 0 0 .7-.7v-1.4a.68.68 0 0 0-.7-.7z"/><circle class="cls-2" cx="15.8" cy="36.6" r=".9"/></svg>

<svg id="Layer_1" data-name="Layer 1" xmlns="http://www.w3.org/2000/svg" width="52px" height="52px" viewBox="0 0 52 52"><defs><style>.cls-1{fill:#a2a2a2;}.cls-2{fill:#ff1a46;}</style></defs><title>icon-beauty-1</title><path class="cls-1" d="M51,51H0V0H51ZM1,50H50V1H1Z"/><path class="cls-2" d="M10.7,32.1a.76.76,0,0,1-.2.4,3.57,3.57,0,0,0-1.2,2.7V38A3.69,3.69,0,0,0,13,41.7H38A3.69,3.69,0,0,0,41.7,38V35.2A3.69,3.69,0,0,0,38,31.5H35.5a.66.66,0,0,1-.5-.4.48.48,0,0,1,.2-.6l3.6-2.1A2.59,2.59,0,0,0,39.9,27a2.29,2.29,0,0,0-.2-1.8L37,20.5a2.76,2.76,0,0,0-1.3-1.1,2,2,0,0,0-1.7.2l-2.5,1.5c-.2.1-.5.1-.6-.1a.47.47,0,0,1-.1-.6L32.3,18a2.4,2.4,0,0,0-.7-3.3l-4.4-2.8a2.14,2.14,0,0,0-1.9-.3,2.27,2.27,0,0,0-1.6,1.1l-2,2.9a.45.45,0,0,1-.6.2.66.66,0,0,1-.4-.5v-4a1.9,1.9,0,0,0-1.9-1.9H12.6a1.9,1.9,0,0,0-1.9,1.9ZM34.9,21.2a.53.53,0,0,1,.7.2v.1c.1.3,1.7,3,2.7,4.8a.6.6,0,0,1,.1.4.32.32,0,0,1-.3.3l-8,4.5a.35.35,0,0,0-.2.1H18.5a.66.66,0,0,1-.5-.4.48.48,0,0,1,.2-.6Zm-14.2-.6a.37.37,0,0,0,.1-.3c0-.1,0-.1.1-.2l4.3-6.5a.55.55,0,0,1,.5-.3.75.75,0,0,1,.5.1l4.4,2.8a1.38,1.38,0,0,1,.3.4.9.9,0,0,1-.1.5l-4.3,6.7c0,.1-.1.1-.2.2L15.4,30.1a.35.35,0,0,0-.2.1.76.76,0,0,1-.4-.2.37.37,0,0,1,0-.6Zm-8.2-9a.47.47,0,0,1,.5-.5h5.6a.47.47,0,0,1,.5.5v7.9a.37.37,0,0,1-.1.3l-5.6,8.4a.76.76,0,0,1-.4.2h-.1a.66.66,0,0,1-.4-.5ZM11.1,35.2A1.9,1.9,0,0,1,13,33.3H38a1.9,1.9,0,0,1,1.9,1.9V38A1.9,1.9,0,0,1,38,39.9H13A1.9,1.9,0,0,1,11.1,38Z"/><path class="cls-2" d="M24.8,35.2H23.4a.68.68,0,0,0-.7.7v1.4a.68.68,0,0,0,.7.7h1.4a.68.68,0,0,0,.7-.7V35.9A.68.68,0,0,0,24.8,35.2Z"/><path class="cls-2" d="M30.4,35.2H29a.68.68,0,0,0-.7.7v1.4a.68.68,0,0,0,.7.7h1.4a.68.68,0,0,0,.7-.7V35.9A.75.75,0,0,0,30.4,35.2Z"/><path class="cls-2" d="M35.9,35.2H34.5a.68.68,0,0,0-.7.7v1.4a.68.68,0,0,0,.7.7h1.4a.68.68,0,0,0,.7-.7V35.9A.68.68,0,0,0,35.9,35.2Z"/><circle class="cls-2" cx="15.8" cy="36.6" r="0.9"/></svg>
